public/feature05.svg

<svg width="61" height="61" viewBox="0 0 61 61" fill="none" xmlns="http://www.w3.org/2000/svg">
<g clip-path="url(#clip0_6511_1877)">
<g clip-path="url(#clip1_6511_1877)">
<g clip-path="url(#clip2_6511_1877)">
<mask id="mask0_6511_1877" style="mask-type:luminance" maskUnits="userSpaceOnUse" x="1" y="0" width="60" height="61">
<path d="M60.3377 0.919922H1.14844V60.1091H60.3377V0.919922Z" fill="white"/>
</mask>
<g mask="url(#mask0_6511_1877)">
<path d="M12.9297 15.063V30.9201C15.9297 29.9201 23.3011 29.7201 28.7868 36.9201C30.0725 39.6344 32.1297 45.9201 30.0725 49.3487L36.0725 52.7773V27.063L12.9297 15.063Z" fill="#FDC040"/>
<path d="M59.7379 13.7217L36.6857 1.06348C36.3394 0.87337 35.9194 0.87337 35.5731 1.06348L26.8843 5.83441C26.701 5.88272 26.5298 5.97485 26.388 6.10716L12.5213 13.7217C12.1516 13.9244 11.9217 14.3128 11.9217 14.735V30.0444C9.58253 30.776 7.43886 32.0661 5.65648 33.8489C1.01065 38.4943 -0.173837 45.5795 2.70903 51.4794C2.98901 52.0529 3.68128 52.291 4.25479 52.0105C4.82874 51.7301 5.06627 51.0378 4.78629 50.4643C2.33694 45.4513 3.3435 39.4313 7.2912 35.4837C9.75996 33.0149 13.042 31.6552 16.5332 31.6552C20.0243 31.6552 23.3064 33.0149 25.7752 35.4837C28.2435 37.952 29.6032 41.2341 29.6032 44.7252C29.6032 48.2164 28.2435 51.4985 25.7747 53.9672C21.8271 57.9149 15.807 58.9215 10.7941 56.4721C10.2206 56.1917 9.52827 56.4297 9.24833 57.0031C8.96791 57.5771 9.20547 58.2694 9.77942 58.5493C11.9284 59.5997 14.2342 60.11 16.5232 60.11C20.5166 60.1096 24.4566 58.5552 27.4099 55.6019C28.7642 54.2477 29.8344 52.6852 30.5917 50.9867L35.5731 53.722C35.7465 53.8173 35.938 53.8647 36.1294 53.8647C36.3208 53.8647 36.5128 53.8173 36.6857 53.722L59.7379 41.0643C60.1078 40.8611 60.3376 40.4727 60.3376 40.0509V32.0169C60.3376 31.3784 59.8201 30.8609 59.1815 30.8609C58.543 30.8609 58.0255 31.3784 58.0255 32.0169V39.3668L37.2891 50.7533V28.0751L44.1328 24.317V30.2742C44.1328 30.6834 44.3486 31.0618 44.7004 31.2695C44.8819 31.3766 45.0851 31.4303 45.2888 31.4303C45.4803 31.4303 45.6722 31.3829 45.846 31.2871L50.7858 28.5682C51.1552 28.3649 51.3842 27.9771 51.3842 27.5558V20.3351L58.0255 16.6885V22.769C58.0255 23.4076 58.543 23.9251 59.1815 23.9251C59.8201 23.9251 60.3376 23.4076 60.3376 22.769V14.735C60.3376 14.3132 60.1078 13.9244 59.7379 13.7217ZM36.1294 3.39543L56.7796 14.735L50.2656 18.3119L29.6154 6.97238L36.1294 3.39543ZM36.1294 26.0741L15.4792 14.735L22.2321 11.0267L42.8828 22.3658L36.1294 26.0741ZM45.2842 21.0472L24.634 9.70802L27.2134 8.29144L47.8641 19.6306L45.2842 21.0472ZM27.4099 33.8489C24.5044 30.9435 20.6416 29.3435 16.5332 29.3435C15.756 29.3435 14.9884 29.4009 14.2337 29.5133V16.6885L34.9774 28.0792V50.7574L31.377 48.7804C31.7315 47.4753 31.9149 46.1142 31.9149 44.7252C31.9149 40.6168 30.3149 36.754 27.4099 33.8489ZM49.0726 26.8725L46.4448 28.3189V23.0477L49.0726 21.6048V26.8725Z" fill="#3BB77E"/>
<path d="M59.1795 26.2305C58.8756 26.2305 58.5771 26.3542 58.3622 26.5692C58.1472 26.7841 58.0234 27.0822 58.0234 27.3865C58.0234 27.6904 58.1472 27.9885 58.3622 28.2034C58.5771 28.4188 58.8756 28.5421 59.1795 28.5421C59.4834 28.5421 59.7819 28.4188 59.9968 28.2034C60.2118 27.9885 60.3356 27.6904 60.3356 27.3865C60.3356 27.0822 60.2118 26.7841 59.9968 26.5692C59.7819 26.3542 59.4834 26.2305 59.1795 26.2305Z" fill="#3BB77E"/>
<path d="M12.6451 45.8803C12.9409 45.8803 13.2371 45.7674 13.4624 45.5421C13.914 45.0904 13.914 44.3584 13.4624 43.9069L12.6618 43.1058H19.4941C21.1514 43.1058 22.4998 44.4542 22.4998 46.1115C22.4998 47.7688 21.1514 49.1172 19.4941 49.1172H15.4457C14.8072 49.1172 14.2897 49.6347 14.2897 50.2732C14.2897 50.9113 14.8072 51.4288 15.4457 51.4288H19.4941C22.4263 51.4288 24.8119 49.0436 24.8119 46.1115C24.8119 43.1794 22.4263 40.7942 19.4941 40.7942H12.6618L13.4624 39.993C13.914 39.5415 13.914 38.8095 13.4624 38.3579C13.0112 37.9067 12.2792 37.9067 11.8277 38.3579L9.05319 41.1324C8.60206 41.584 8.60206 42.316 9.05319 42.7676L11.8277 45.5416C12.0535 45.7674 12.3493 45.8803 12.6451 45.8803Z" fill="#3BB77E"/>
<path d="M6.47316 55.9415C6.14442 55.9415 5.81792 55.8016 5.58988 55.5301L5.58762 55.5275C5.17668 55.0388 5.23991 54.31 5.72851 53.8991C6.21712 53.4876 6.94642 53.5509 7.35736 54.0395C7.76784 54.5285 7.70598 55.2587 7.21736 55.6697C7.00015 55.8521 6.73598 55.9415 6.47316 55.9415Z" fill="#3BB77E"/>
</g>
</g>
</g>
</g>
<defs>
<clipPath id="clip0_6511_1877">
<rect width="60" height="60" fill="white" transform="translate(0.5 0.919922)"/>
</clipPath>
<clipPath id="clip1_6511_1877">
<rect width="60" height="60" fill="white" transform="translate(0.5 0.919922)"/>
</clipPath>
<clipPath id="clip2_6511_1877">
<rect width="60" height="60" fill="white" transform="translate(0.5 0.919922)"/>
</clipPath>
</defs>
</svg>

<svg xmlns="http://www.w3.org/2000/svg" width="61" height="61" fill="none"><g clip-path="url(#a)"><g clip-path="url(#b)"><g clip-path="url(#c)"><mask id="d" width="60" height="61" x="1" y="0" maskUnits="userSpaceOnUse" style="mask-type:luminance"><path fill="#fff" d="M60.338.92H1.148v59.19h59.19z"/></mask><g mask="url(#d)"><path fill="#FDC040" d="M12.93 15.063V30.92c3-1 10.371-1.2 15.857 6 1.286 2.714 3.343 9 1.286 12.429l6 3.428V27.063z"/><path fill="#3BB77E" d="M59.738 13.722 36.686 1.063a1.16 1.16 0 0 0-1.113 0l-8.689 4.771a1.16 1.16 0 0 0-.496.273l-13.867 7.615c-.37.202-.6.59-.6 1.013v15.31a15.3 15.3 0 0 0-6.265 3.804 15.39 15.39 0 0 0-2.947 17.63 1.155 1.155 0 1 0 2.077-1.015 13.07 13.07 0 0 1 2.505-14.98 12.98 12.98 0 0 1 9.242-3.829c3.491 0 6.773 1.36 9.242 3.829a12.98 12.98 0 0 1 3.828 9.241c0 3.491-1.36 6.773-3.828 9.242a13.07 13.07 0 0 1-14.98 2.505 1.156 1.156 0 1 0-1.016 2.077 15.389 15.389 0 0 0 17.63-2.947 15.4 15.4 0 0 0 3.183-4.615l4.981 2.735a1.15 1.15 0 0 0 1.113 0l23.052-12.658c.37-.203.6-.591.6-1.013v-8.034a1.156 1.156 0 1 0-2.312 0v7.35L37.289 50.753V28.075l6.844-3.758v5.957a1.155 1.155 0 0 0 1.713 1.013l4.94-2.719c.37-.203.598-.59.598-1.012v-7.22l6.642-3.647v6.08a1.156 1.156 0 1 0 2.312 0v-8.034c0-.422-.23-.81-.6-1.013M36.129 3.395l20.65 11.34-6.513 3.577-20.65-11.34zm0 22.68-20.65-11.34 6.753-3.708 20.65 11.339zm9.155-5.028L24.634 9.708l2.58-1.417 20.65 11.34zM27.41 33.85a15.28 15.28 0 0 0-10.877-4.505 15.6 15.6 0 0 0-2.3.17V16.688l20.744 11.39v22.678l-3.6-1.977c.355-1.305.538-2.666.538-4.055 0-4.108-1.6-7.971-4.505-10.876m21.663-6.976-2.628 1.446v-5.271l2.628-1.443z"/><path fill="#3BB77E" d="M59.18 26.23c-.304 0-.603.124-.818.34a1.16 1.16 0 0 0-.339.817c0 .303.124.601.34.816.214.216.513.34.816.34.304 0 .603-.124.818-.34.215-.215.339-.513.339-.816 0-.305-.124-.603-.34-.818a1.17 1.17 0 0 0-.817-.338M12.645 45.88a1.156 1.156 0 0 0 .817-1.973l-.8-.801h6.832A3.01 3.01 0 0 1 22.5 46.11a3.01 3.01 0 0 1-3.006 3.006h-4.048a1.156 1.156 0 1 0 0 2.312h4.048a5.324 5.324 0 0 0 5.318-5.318 5.324 5.324 0 0 0-5.318-5.317h-6.832l.8-.801a1.156 1.156 0 1 0-1.634-1.635l-2.775 2.774a1.157 1.157 0 0 0 0 1.636l2.775 2.774c.226.225.521.338.817.338M6.473 55.942a1.15 1.15 0 0 1-.883-.412l-.002-.002a1.156 1.156 0 1 1 .885.413"/></g></g></g></g><defs><clipPath id="a"><path fill="#fff" d="M.5.92h60v60H.5z"/></clipPath><clipPath id="b"><path fill="#fff" d="M.5.92h60v60H.5z"/></clipPath><clipPath id="c"><path fill="#fff" d="M.5.92h60v60H.5z"/></clipPath></defs></svg>
